!!!COM: Claude Debussy
!!!CNT: Francais
!!!TXO: Francais
!!!OTL: "Nuit d'E/toiles"
!!!LYR: de Banville
!!!OPR: 
!!!OPS: Op.
!!!ONM: No. 
!!!ENC: Emily Thomas
!!!YOR: CD Sheet Music French Art Songs, The Ultimate Collection
!!!YOR: CD Sheet Music, LLC 2003
!!!ODT: 1880/
!!NB: Vocal melody and text encoded.
**kern	**silbe
=1	=1
*clefG2	*
*k[b-e-a-]	*
*M6/8	*
*MM[Allegro]	*
2.r	.
=2	=2
2.r	.
=3	=3
2.r	.
=4	=4
4.r	.
{4b-	{Nuit
8b-	d'e/-
=5	=5
4dd	-toi-
8cc	|
4.g}	-les,}
=6	=6
4.r	.
{8g	{Sous
8f	|
8e-	tes
=7	=7
4g	voi-
8b-	|
4.b-}	-les,}
=8	=8
4.r	.
{4b-	{Sous
8b-	ta
=9	=9
4.dd	bri-
4.ee-	-se
=10	=10
4.g	et
8f	tes
8g	|
8f	par-
=11	=11
2.g}	-fums,}
=12	=12
4.r	.
{4g	{Tris-
8g	-te
=13	=13
[4.b-	ly-
8b-]	|
8a-	|
8g	|
=14	=14
4g}	-re}
8r	.
{4cc	{Qui
8cc	sou-
=15	=15
[4.dd-	-pi-
8dd-]	|
8ee-	|
8dd-	|
=16	=16
4cc}	-re,}
8r	.
{4.cc	{Je
=17	=17
4.gg	re^ve
4ff	aux
8ee-	a-
=18	=18
4.ee-	-mours
4ddn	|
8cc-	de/-
=19	=19
2.cc-}	-funts,}
=20	=20
4.r	.
{4.cc-	{Je
=21	=21
4.a-	re^ve
8a-	aux
8g	|
8f	a-
=22	=22
4.a-	-mours
8a-	de/-
8g	|
8f	|
=23	=23
2.g}	-funts}
=24	=24
4.r	.
{4g	{La
8f	se-
=25	=25
4f	-rei-
8e-	-ne
8e-	me-
8f	-lan-
8g	-co-
=26	=26
4g	-li-
8g	-e
4cc	Vient
8ee-	e/-
=27	=27
4dd	-clore
8b-	au
8g	fond
8an	de
8g	mon
=28	=28
4.d	coeur,
4b-	Et
8b-	j'en-
=29	=29
4.an}	-tends}
4.r	.
=30	=30
{4bn	{l'a^-
8dd	-me
8ff#	de
8dd	|
8bn	ma
=31	=31
4an	mi-
8an	-e
4an	Tres-
8an	-sail-
=32	=32
4bn	-lir
8dd	dans
8ff#	le
8dd	bois
8bn	re^-
=33	=33
2.a#}	-veur.}
=34	=34
2.r	.
=35	=35
2.r	.
=36	=36
2.r	.
=37	=37
4.r	.
{4b-	{Nuit
8b-	d'e/-
=38	=38
4dd	-toi-
8cc	|
4.g}	-les,}
=39	=39
4.r	.
{8g	{Sous
8f	|
8e-	tes
=40	=40
4g	voi-
8b-	|
4.b-}	-les,}
=41	=41
4.r	.
{4b-	{Sous
8b-	ta
=42	=42
4.dd	bri-
4.ee-	-se
=43	=43
4.g	et
8f	tes
8g	|
8f	par-
=44	=44
2.g}	-fums,}
=45	=45
4.r	.
{4g	{Tris-
8g	-te
=46	=46
[4.b-	ly-
8b-]	|
8a-	|
8g	|
=47	=47
4.g}	-re}
{4cc	{Qui
8cc	sou-
=48	=48
[4.dd-	-pi-
8dd-]	|
8ee-	|
8dd-	|
=49	=49
4.cc}	-re,}
{4.cc	{Je
=50	=50
4.gg	re^ve
4ff	aux
8ee-	a-
=51	=51
4.ee-	-mours
4ddn	|
8cc-	de/-
=52	=52
2.cc-}	-funts,}
=53	=53
4.r	.
{4.cc-	{Je
=54	=54
4.a-	re^ve
8a-	aux
8g	|
8f	a-
=55	=55
4.a-	-mours
8a-	de/-
8g	|
8f	|
=56	=56
2.g}	-funts.}
=57	=57
4.r	.
{4g	{Je
8f	re-
=58	=58
4f	-vois
8e-	a\
8e-	no-
8f	-tre
8g	fon-
=59	=59
4g	tai-
8g	-ne
4cc	Tes
8ee-	re-
=60	=60
4dd	-gards
8bn	bleus
8g	com-
8an	-me
8g	les
=61	=61
4.d	cieux,
4bn	Cet-
8bn	-te
=62	=62
4.an	ro-
4an}	-se,}
8r	.
=63	=63
4.r	.
{8an	{c'est
8bn	ton
8cc#	ha-
=64	=64
4.gg	lei-
4.ff#}	-ne,}
=65	=65
4.r	.
{8dd	{Et
8dd	ces
8een	e/-
=66	=66
4.bn	-toi-
8g	|
8a-	|
8bn	-les
=67	=67
4.bn	sont
8en	tes
8g	|
8bn	|
=68	=68
2.f#}	yeux.}
=69	=69
2.r	.
=70	=70
2.r	.
=71	=71
4.r	.
{4b-	{Nuit
8b-	d'e/-
=72	=72
4dd	-toi-
8cc	|
4.g}	-les,}
=73	=73
4.r	.
{8g	{Sous
8f	|
8e-	tes
=74	=74
4g	voi-
8b-	|
4.b-}	-les,}
=75	=75
4.r	.
{4b-	{Sous
8b-	ta
=76	=76
4.dd	bri-
4.ee-	-se
=77	=77
4.g	et
8f	tes
8g	|
8f	par-
=78	=78
2.g}	-fums,}
=79	=79
4.r	.
{4g	{Tris-
8g	-te
=80	=80
[4.b-	ly-
8b-]	|
8a-	|
8g	|
=81	=81
4g	-re
8r	.
4cc	Qui
8cc	sou-
=82	=82
[4.dd-	-pi-
8dd-]	|
8ee-	|
8dd-	|
=83	=83
4cc}	-re,}
8r	.
{4.cc	{Je
=84	=84
4.gg	re^ve
4ff	aux
8ee-	a-
=85	=85
4.ee-	-mours
4ddn	|
8cc-	de/-
=85	=85
2.cc-}	-funts,}
=86	=86
4.r	.
{4.cc-	{Je
=87	=87
4.a-	re^ve
8a-	aux
8g	|
8f	a-
=88	=88
4.a-	-mours
8a-	de/-
8g	|
8f	|
=89	=89
4.g}	-funts.}
4.r	.
==	==
*-	*-
